X:1
T:Title
T:If Music be the food of love
T:HENRY PURCELL 1692
C:Composer
%%score 1 { ( 2 3 5 ) | ( 4 6 ) }
L:1/8
M:4/4
K:A
V:1 treble-8 nm="Tenor" snm="T."
V:2 treble nm="Piano" snm="Pno."
V:3 treble 
V:5 treble 
V:4 bass 
V:6 bass 
V:1
 z6!p!"^Slow." c2 | (dc)(BA) (GA)(Bc) | (BA)(GF) ^E3 C | F2 F2 A3 F | c2 c2 e3!f! f | %5
w: If|mu- * sic _ be _ the _|food _ of _ Love, sing|on, sing on, sing|on, sing on, till|
 (ec)(BG) (AE)(FA) | (A/B/c) (BA) A3 c |!mf! A2 E2 (EC) E2 | (EA) (A/B/c) B3 e | %9
w: I _ am _ fill'd _ am _|fill'd _ _ with _ joy; For|then my list'- * ning|Soul _ you _ _ move, for|
 B2 G2 (GE) (G/A/B) | (c/d/e) (dc) d3 e | (fc)(dB) (cF) B2 | (B/c/d) (cB) B3 B | %13
w: then my list' _ ning _ _|soul _ _ you _ move to|pleas _ ures _ that _ can|ne _ _ ver . cloy. Your|
"^cresc." G3 c A3 d | B3 e c3 c |!f! d3 e (f!>(!c)BA!>)! | G/A/B d(c A2) (GF) | %17
w: eyes, you Mien, you|Tongue de- clare that|you are mus _ _ _|_ _ _ sic _ ev ry _|
!>(! F6 z"^cresc." A!>)! | A G2 c B A2 d | c B2 e d c2 c |!f! d3 e (fc)BA | %21
w: where Your|eyes _ your mein _ your|tongue _ de- cla- re that|you are mu _ _ _|
 G/A/B"^dim." (dc) A2 (GTA) | F8 |!p! c2 (BA) (GA)(Bc) | (BA)(GF) ^E3!<(! C!<)! | F2 F2 A3 F | %26
w: _ _ _ sic _ ev ry _|where|Plea sures in- va- de bo- th|eye _ a- nd ear so|Fierce so Fierece So|
 c2 c2 e3!f! f | (ec)BG AE(FA) | (A/B/c) (B!>(!A) A3 c!>)! |!mf! A2 E2 (EC) E2 | (EA)(Ac) B3 e | %31
w: Fierce So Fierece the|trans _ _ _ _ _ ports _|are _ _ they _ wound. And|all my sen- * ces|feas- * ted _ are. And|
 B2 G2 (GE) (G/^A/B) | (c/d/)e (dc) d3 e | (fc)(dB) (cF) B2 | (B/c/d) (cB) B3 B | %35
w: all my sen- * ces _ _|feas- * * ted _ are thou|yet _ the _ treat _ is|on- * * ly _ sound. Sing|
"^cresc." G3 c A3 c | B3 e c3 c |!f! d3 e (fc)BA | G/A/B (dc) A2 (G!>(!F)!>)! | F6 z A | %40
w: on, fair Nymph, en-|chant me still; such|charms may wound _ _ _|_ _ _ they _ can- not _|kill; Sing|
"^cresc." AB/A/ Gc Bc/B/ Ad | c B2 e de/d/ cc |!f! d3 e (fc)"_dim."BA | G/A/(B (d)c) A2 (TGF) | %44
w: on _ _ _ Fair * * * * en-|* chant me * * * still; such|charms may wound _ _ _|_ _ _ they _ can- not _|
 ^E4 F4 |] %45
w: _ _|
V:2
 z6 [Ac]2 | [FA]6 [CG]2 | BAGF [C^E]4 | F4 A4 |!<(! [Ac]4 e3!f! f!<)! | [Ae]c [DB]2 A3 A | %6
 [CA]/[DB]/[Ec] [GB]A A4 |!mf! (((([CEA]8 | [CEA]2)))) [EAc]2 ((([EGB]4 | [EGB]2))) [EG]2 G2 B2 | %10
 [Ec]2 [Fd][Ec] d2 B2 | c2 B2 ^A2 B2 | B/c/d [^Ac]B B4 |!<(! ([EB]2 c2) (c2 d2)!<)! | d2 cB c2 c2 | %15
 d3 [ce] [Be]c/d/ eA | d2 dc A2!>(! GF!>)! | [A,F]6 [CFA]2 | G3 c c>B Ad | %19
 d>c Be [Ec]>[DB] [CA][Ec] | [DAd]3 [Gce] [de]cBA | G/A/B dc [FA]2 [^EG]F | F8 | [FA]6 [CG]2 | %24
 BAGF [C^E]4 | F4 A4 | [Ac]4 e3!f! f | [Ae]c [DB]2 A3 A | [CA]/[DB]/[Ec] [GB]A A4 | ((([CEA]8 | %30
 [CEA]2))) [EAc]2 ((([EGB]4 | [EGB]2))) [EG]2 G2 B2 | [Ec]2 [Fd][Ec] d2 B2 | c2 B2 ^A2 B2 | %34
 B/c/d [^Ac]B B4 | [EB]2 (c2 c2) (d2 | d2) cB c2 c2 | d3 [ce] [Be]c/d/ eA | d2 dc A2 GF | %39
 [A,F]6 [CFA]2 | G3 c c>B Ad | d>c Be [Ec]>[DB] [CA][Ec] |!f! [DAd]3 [Gce] [de]cBA | %43
 G/A/B dc [FA]2 [^EG]!>(!F!>)! | F8 |] %45
V:3
 x6 C2 | C6 C2 | F2 D2 G,4 | CDCB, C4 | F4 [EB]2 [GB]2 | dEGG [EA]E [DF]2 | E2 D2 C4 | x8 | x8 | %9
 x4 E2 [FG]2 | ^A2 A2 [DB]2 [DF]2 | C2 x6 | (=GB)ED D4 | A4 x4 | [EB]2 [EG]2 [EA]2 [EA]2 | %15
 A2 G2 FcBA | G/A/B [CF]2 DF^EF | x8 | [C^E]3 [CF] [DF]4 | [EG]4 A4 | x4 AGFE | D2 [CF]2 DCB,A, | %22
 x8 | C6 C2 | F2 D2 G,4 | CDCB, D4 | F4 [EB]2 [GB]2 | dEGG [EA]E [DF]2 | E2 D2 C4 | x8 | x8 | %31
 x4 E2 [FG]2 | ^A2 A2 [DB]2 [DF]2 | C2 x6 | (=GB)ED D4 | A4 x4 | [EB]2 [EG]2 [EA]2 [EA]2 | %37
 A2 G2 FcBA | G/A/B [CF]2 DF^EF | x8 | [C^E]3 [CF] [DF]4 | [EG]4 A4 | x4 AGFE | D2 [CF]2 DCB,A, | %44
 x8 |] %45
V:4
 z6!p! F,,2 | F,6 E,2 | D,2 B,,2 C,D,C,B,, | F,4!<(! (F,4!<)! | F,3) F, [G,,G,]2 [E,,E,]2 | %5
 A,,2 B,,2 C,2 D,2 | E,2!>(! [E,,E,]2 [A,,E,]4!>)! | ([A,,A,]8 | [A,,B,]4) (([E,,E,]4 | %9
 [E,,E,]4)) E,2 D,2 | C,2 F,2 B,,2 B,2 | A,2 =G,2 F,2 D,2 | E,2 F,2 B,,4 | %13
"^cresc." E,2 C,2 F,2 F,,2 | G,,2 E,,2 A,,2 A,G, |!f! F,2 E,2 D,2 C,2 | z4 B,2 B,A, | %17
 F,,2 F,,G,, A,,G,,A,,!<(!F,,!<)! | C,B,,C,A,, D,C,D,B,, | E,D,E,E,, A,,E,A,G, | %20
!f! F,G,F,E, D,F,D,C, | B,,2 A,,2 B,,2 C,!>(!C,,!>)! | [F,,A,]8 | F,6 E,2 | D,2 B,,2 C,D,C,B,, | %25
 F,4 (F,4 | F,3) F, [G,,G,]2 [E,,E,]2 | A,,2 B,,2 C,2 D,2 | E,2 [E,,E,]2!>(! [A,,E,]4!>)! | %29
!mf! (([A,,A,]8 | [A,,B,]4)) (([E,,E,]4 | [E,,E,]4)) E,2 D,2 | C,2 F,2 B,,2 B,2 | %33
 A,2 =G,2 F,2 D,2 | E,2 F,2 B,,4 | E,2 C,2 F,2 F,,2 | G,,2 E,,2 A,,2 A,G, |!f! F,2 E,2 D,2 C,2 | %38
 z4 B,2 B,!>(!A,!>)! | F,,2 F,,G,, A,,G,,A,,F,, |!<(! C,B,,C,A,, D,C,D,B,,!<)! | %41
 E,D,E,E,, A,,E,A,G, | F,G,F,E, D,F,D,C, | B,,2 A,,2 B,,2 C,C,, | [F,,A,]8 |] %45
V:5
 x8 | x8 | B,2 B,A, x4 | x8 | x8 | x8 | x8 | x8 | x8 | x8 | x8 | FFD(E E)D/C/ [DF]F | E2 x6 | %13
 x2 E2 [FA]2 A2 | x8 | x8 | x8 | x8 | x8 | x8 | x8 | x8 | x8 | x8 | (B,2 B,)A, x4 | x8 | x8 | x8 | %28
 x8 | x8 | x8 | x8 | x8 | FFD(E E)D/C/ [DF]F | E2 x6 | x2 E2 [FA]2 A2 | x8 | x8 | x8 | x8 | x8 | %41
 x8 | x8 | x8 | x8 |] %45
V:6
 x8 | x8 | x8 | A,,B,,A,,G,, (F,,4 | F,,3) F,, x4 | x8 | x8 | x8 | x8 | x8 | x8 | x8 | x8 | x8 | %14
 x8 | x8 | B,,2 G,,2 B,,2 C,2 | x8 | x8 | x8 | x8 | x8 | x8 | x8 | x8 | A,,B,,A,,G,, (F,,4 | %26
 F,,3) F,, x4 | x8 | x8 | x8 | x8 | x8 | x8 | x8 | x8 | x8 | x8 | x8 | B,,2 G,,2 B,,2 C,2 | x8 | %40
 x8 | x8 | x8 | x8 | x8 |] %45

